usr/share/icons/biglinux-icons-material/16/actions/format-text-code.svg

<svg xmlns="http://www.w3.org/2000/svg" viewBox="0 0 16 16">
  <defs id="defs3051">
    <style type="text/css" id="current-color-scheme">
      .ColorScheme-Text {
        color:#363636;
      }
      </style>
  </defs>
 <path style="fill:currentColor;fill-opacity:1;stroke:none" 
       d="M 9.08984,2 5.94336,13.74023 6.91016,14 10.05664,2.25977 9.08984,2 Z M 5.28516,4 2.32422,7.14453 2,7.49219 2.32422,7.83789 5.26758,11 5.98242,10.30469 3.36133,7.49219 6,4.69531 5.28516,4 Z M 10.71484,4 10,4.69531 12.63867,7.49219 10.01758,10.30469 10.73242,11 13.67578,7.83789 14,7.49219 13.67578,7.14453 10.71484,4 Z"
     class="ColorScheme-Text"
     />
</svg>

<svg xmlns="http://www.w3.org/2000/svg" viewBox="0 0 16 16"><path d="M9.09 2 5.943 13.74l.967.26 3.147-11.74L9.09 2ZM5.285 4l-2.96 3.145L2 7.492l.324.346L5.268 11l.714-.695-2.62-2.813L6 4.695 5.285 4Zm5.43 0L10 4.695l2.639 2.797-2.621 2.813.714.695 2.944-3.162.324-.346-.324-.347L10.715 4Z" style="fill:currentColor;fill-opacity:1;stroke:none;color:#dedede"/></svg>
